src/img/icons/alert-maintenance.svg

<svg width="32" height="32" viewBox="0 0 32 32" fill="none" xmlns="http://www.w3.org/2000/svg">
<path d="M21.8977 23.5007L23.4016 22.0517C23.5494 21.9046 23.6234 21.7355 23.6234 21.5444C23.6234 21.3535 23.5494 21.1841 23.4016 21.0359L17.8137 15.4312C17.9503 15.1151 18.0553 14.7938 18.1287 14.4674C18.2022 14.1407 18.2389 13.7913 18.2389 13.4192C18.2389 12.0597 17.7556 10.8982 16.7892 9.93468C15.8227 8.97089 14.6577 8.489 13.2943 8.489C13.0448 8.489 12.8109 8.50374 12.5928 8.53321C12.3747 8.56293 12.1553 8.61746 11.9345 8.69679C11.7358 8.78619 11.6026 8.92791 11.5351 9.12195C11.4673 9.31598 11.5018 9.48447 11.6386 9.62742L14.2364 12.2148L12.0995 14.3064L9.51284 11.7492C9.37997 11.6163 9.2181 11.5669 9.02726 11.6011C8.83642 11.6354 8.70453 11.7483 8.63158 11.9396C8.54267 12.1735 8.48016 12.4165 8.44405 12.6687C8.40795 12.921 8.38989 13.1762 8.38989 13.4343C8.38989 14.7874 8.86651 15.9381 9.81974 16.8864C10.773 17.8347 11.9261 18.3089 13.2792 18.3089C13.6422 18.3089 13.9903 18.2723 14.3233 18.1991C14.6564 18.1262 14.9873 18.0229 15.3162 17.8893L20.8963 23.4867C21.0341 23.6245 21.201 23.6957 21.397 23.7004C21.5928 23.7053 21.7596 23.6387 21.8977 23.5007ZM16.0026 30C14.0762 30 12.2627 29.6326 10.5621 28.8977C8.86147 28.1628 7.37686 27.1614 6.10826 25.8936C4.83991 24.6255 3.83805 23.1415 3.10268 21.4416C2.36756 19.7417 2 17.9287 2 16.0026C2 14.0662 2.36744 12.246 3.10232 10.5422C3.83719 8.83839 4.83856 7.35635 6.10642 6.0961C7.37453 4.83586 8.85853 3.83805 10.5584 3.10268C12.2583 2.36756 14.0713 2 15.9974 2C17.9338 2 19.754 2.36744 21.4578 3.10232C23.1616 3.83719 24.6436 4.83451 25.9039 6.09426C27.1641 7.35402 28.1619 8.83544 28.8973 10.5385C29.6324 12.2416 30 14.0612 30 15.9974C30 17.9238 29.6326 19.7373 28.8977 21.4379C28.1628 23.1385 27.1655 24.6231 25.9057 25.8917C24.646 27.1601 23.1646 28.1619 21.4615 28.8973C19.7584 29.6324 17.9388 30 16.0026 30ZM16 28.1483C19.3843 28.1483 22.2552 26.9672 24.6126 24.6048C26.9697 22.2425 28.1483 19.3742 28.1483 16C28.1483 12.6157 26.9697 9.74482 24.6126 7.38742C22.2552 5.03026 19.3843 3.85168 16 3.85168C12.6258 3.85168 9.75747 5.03026 7.39516 7.38742C5.03284 9.74482 3.85168 12.6157 3.85168 16C3.85168 19.3742 5.03284 22.2425 7.39516 24.6048C9.75747 26.9672 12.6258 28.1483 16 28.1483Z" fill="#131212"/>
</svg>

<svg xmlns="http://www.w3.org/2000/svg" viewBox="0 0 32 32">
  <path fill="currentColor" d="m21.898 23.5 1.504-1.448a.696.696 0 0 0 .221-.508.7.7 0 0 0-.221-.508l-5.588-5.605a5.51 5.51 0 0 0 .315-.964c.073-.326.11-.676.11-1.048 0-1.36-.483-2.52-1.45-3.484-.966-.964-2.131-1.446-3.495-1.446-.25 0-.483.015-.701.044-.218.03-.438.084-.659.164a.71.71 0 0 0-.399.425.46.46 0 0 0 .104.505l2.597 2.588-2.136 2.091-2.587-2.557a.52.52 0 0 0-.486-.148.498.498 0 0 0-.395.339 3.402 3.402 0 0 0-.188.729 5.398 5.398 0 0 0-.054.765c0 1.353.477 2.504 1.43 3.452.953.949 2.106 1.423 3.46 1.423.362 0 .71-.037 1.043-.11.333-.073.664-.176.993-.31l5.58 5.598a.707.707 0 0 0 .501.213.657.657 0 0 0 .5-.2ZM16.003 30c-1.927 0-3.74-.367-5.44-1.102a14.205 14.205 0 0 1-4.455-3.004 14.202 14.202 0 0 1-3.005-4.452C2.368 19.742 2 17.929 2 16.002c0-1.936.367-3.756 1.102-5.46a14.038 14.038 0 0 1 3.004-4.446 14.307 14.307 0 0 1 4.452-2.993C12.258 2.368 14.071 2 15.998 2c1.936 0 3.756.367 5.46 1.102a14.142 14.142 0 0 1 4.446 2.992 14.14 14.14 0 0 1 2.993 4.445C29.632 12.242 30 14.06 30 15.997c0 1.927-.367 3.74-1.102 5.44a14.308 14.308 0 0 1-2.992 4.455 14.036 14.036 0 0 1-4.444 3.005c-1.704.735-3.523 1.103-5.46 1.103ZM16 28.148c3.384 0 6.255-1.18 8.613-3.543 2.357-2.363 3.535-5.23 3.535-8.605 0-3.384-1.178-6.255-3.535-8.613C22.255 5.03 19.384 3.852 16 3.852c-3.374 0-6.243 1.178-8.605 3.535C5.033 9.745 3.852 12.616 3.852 16c0 3.374 1.18 6.242 3.543 8.605 2.362 2.362 5.23 3.543 8.605 3.543Z"/>
</svg>
